X: 89
M:6/8
L:1/8
K:G
vkG3 kB3|AGA BGE|DEF (Gc/d/"4"e)|{e}dcB (A2G)|
kG3 kB3|AGA BGE|DEF (Gc/d/"4"e)|{e}dcB (A2G)||


